X:1
T:Chopin Funeral March for violin and piano
T:Chopin Funeral March for violin and piano
T:Frédéric Chopin
T:Transcription by Kevin Li
T:May, 2016
T:May, 2016
T:May, 2016
T:May, 2016
T:May, 2016
T:May, 2016
T:May, 2016
T:May, 2016
C:Frédéric Chopin
Z:Edition by Kevin Li
Z:May, 2016
%%score ( 1 2 ) { ( 3 4 ) | ( 5 6 ) }
L:1/8
Q:1/4=60
M:4/4
K:Db
V:1 treble nm="Violin" snm="Vln."
V:2 treble 
V:3 treble nm="Piano" snm="Pno."
V:4 treble 
V:5 bass 
V:6 bass 
V:1
"^Lento" z8 | z8 | z8 | z8 | z8 | z8 | z2 z2 z4 | z8 | z8 | z8 | z8 | z8 | z8 | z4 z2!ff! c2 | %14
 d2 f>g a>b c'>d' | f'4 e'2 (3bag | f2 f>=g =a>b c'>d' | d'2 (6:4:6=g/=e/B/=G/=E/B,/ C z z2 | z8 | %19
 z8 | z8 | z4 z2 d>e | f2 f>g a>b c'>d' | f'4 e'2 (3bag | f2 f>=g =a>b c'>d' | %25
 d'2 (6:4:6=g/=e/B/=G/=E/B,/ C z z2 | z8 | z8 | z8 | z8 |:[Q:1/4=60]"^Lento"!pp! f4 gfed | %31
 c2 b2 a4 | g4 agfe | d2 d'2 a4 | f4 gfe=d | (3e/f/e/=d ef gBfe | !trill(!Te4{/A} bagA | %37
 e4 d2 z2 :: c4 dcBA | =G2 f2 e4 | d4 edcB | =A2 g2 f4 | f4 gfed | d2 c2 z c{/e} d>c | %44
 c2 B2 z c{/e} d>c | c2 f2 g2 A2 |!pp! f4 gfed | c2 b2 a4 | g4 agfe | d2 d'2 a4 | f4 gfe=d | %51
 (3e/f/e/=d ef gBfe | !trill(!Te4{/A} bagA |1 e4 d2 z2 :|2 e4 d2 z2 || z8 | z8 | z8 | z8 | z8 | %60
 z8 | z2 z2 z4 | z8 | z8 | z8 | z8 | z8 | z8 | z4 z2!ff! c2 | d2 f>g a>b c'>d' | f'4 e'2 (3bag | %71
 f2 f>=g =a>b c'>d' | d'2 (6:4:6=g/=e/B/=G/=E/B,/ C z z2 | z8 | z8 | z8 | z4 z2 d>e | %77
 f2 f>g a>b c'>d' | f'4 e'2 (3bag | f2 f>=g =a>b c'>d' | d'2 (6:4:6=g/=e/B/=G/=E/B,/ C z z2 | z8 | %82
 z8 | z8 | z8 |] %85
V:2
 x8 | x8 | x8 | x8 | x8 | x8 | x8 | x8 | x8 | x8 | x8 | x8 | x8 | x8 | x8 | x8 | x8 | x8 | x8 | %19
 x8 | x8 | x8 | x8 | x8 | x8 | x8 | x8 | x8 | x8 | x8 |: x8 | x8 | x8 | x8 | x8 | x8 | %36
{cd} x/x/x/x/ x/x/x/x/4!trill)!x/4 z4 | x8 :: x8 | x8 | x8 | x8 | x8 | x8 | x8 | x8 | x8 | x8 | %48
 x8 | x8 | x8 | x8 |{cd} x/x/x/x/ x/x/x/x/4!trill)!x/4 z4 |1 x8 :|2 x8 || x8 | x8 | x8 | x8 | x8 | %60
 x8 | x8 | x8 | x8 | x8 | x8 | x8 | x8 | x8 | x8 | x8 | x8 | x8 | x8 | x8 | x8 | x8 | x8 | x8 | %79
 x8 | x8 | x8 | x8 | x8 | x8 |] %85
V:3
 (B,2 B,>B, B,4) | (B,2 B,>B, B,4) | (B,2 B,>B, B,2 D>C |{/D} C>B, B,>B, B,4) | %4
 ([B,D]2 D>D D2 [DF]>[CE] |{/F} [CE]>[B,D] [B,D]>[B,D] [B,D]4) |!>(! (B>A!>)!{/A} G>F F2 D2) | %7
!>(! (B>A!>)!{/A} G>F F2 D2) | (B,2 B,>B, B,2 D>C |!<(!{/D} C>B,!<)! B,>B, B,4) | %10
!>(! ([Bb][Aa]!>)!{Aa} [Gg]>[Ff] [Ff]2 [DB]2) |!>(! ([Bb][Aa]!>)!{Aa} [Gg]>[Ff] [Ff]2 [DB]2) | %12
 ([B,B]2 [B,B]>[B,B] [B,B]2 [Dd]>[Cc] |!<(! [Cc]>!<)![B,B] [B,B]>[B,B] [B,B]2 [CGc]2 | %14
!f! [DF]2)!<(! ([Ff]>!<)![Gg] [Aa]>[Bb] [cc']>[dd']) | %15
!>(! (((([fac'f']4!>)! [eac'e']3)))) z/ ([Gceg]/ | %16
 [Ff]2)!<(! ([Ff]>!<)![=G=g] [=A=a]>[Bb] [cc']>[dd']) |!>(! (!arpeggio![B=e=gd']4!>)! [cfc']2) z2 | %18
[K:bass]!f! ([_G,_A,C_A]2 [G,A,CA]2 [F,A]2) z2 |!>(! ([E,=A,A]2!>)! [E,=A,A]2 D,4) | %20
 (B,2 B,>B, B,2 D>C | C>B, B,>B,!<(! B,2!<)! [__A,D]>[CE]) | %22
!f! [DF]2[K:treble]!<(! ([Ff]>!<)![Gg] [Aa]>[Bb] [cc']>[dd']) | %23
!>(! (((([fac'f']4!>)! [eac'e']3)))) z/ ([Gceg]/ | %24
 [Ff]2)!<(! ([Ff]>!<)![=G=g] [=A=a]>[Bb] [cc']>[dd']) |!>(! (!arpeggio![B=e=gd']4!>)! [cfc']2) z2 | %26
[K:bass]!f! ([_G,_A,C_A]2 [G,A,CA]2 [F,A]2) z2 |!>(! ([E,=A,A]2!>)! [E,=A,A]2 D,4) | %28
!p! (B,2 B,>B, B,2 D>C |{/D} C>B, B,>B, !fermata!B,2) z2 |:!pp! F4 D4 | C2 B,2 A,4 | G4 A,4 | %33
 D4 A,4 | F4 =D2 B,2 | E4 G2 B,2 | D4 BAGC | E4 D2 z2 :: C4 A,4 | =G2 F2 E4 | D4 B,4 | =A2 G2 F4 | %42
 D8 | D2 C2 z4 | C2 B,2 z4 | C2 F2 E2 A,2 |!pp! F4 D4 | C2 B,2 A,4 | G4 A,4 | D4 A,4 | F4 =D2 B,2 | %51
 E4 G2 B,2 | D4 BAGC |1 E4 D2 z2 :|2 E4 D2 z2 || (B,2 B,>B, B,4) | (B,2 B,>B, B,4) | %57
 (B,2 B,>B, B,2 D>C |{/D} C>B, B,>B, B,4) | ([B,D]2 D>D D2 [DF]>[CE] | %60
{/F} [CE]>[B,D] [B,D]>[B,D] [B,D]4) |!>(! (B>A!>)!{/A} G>F F2 D2) |!>(! (B>A!>)!{/A} G>F F2 D2) | %63
 (B,2 B,>B, B,2 D>C |!<(!{/D} C>B,!<)! B,>B, B,4) | %65
[K:treble]!>(! ([Bb][Aa]!>)!{Aa} [Gg]>[Ff] [Ff]2 [DB]2) | %66
!>(! ([Bb][Aa]!>)!{Aa} [Gg]>[Ff] [Ff]2 [DB]2) | ([B,B]2 [B,B]>[B,B] [B,B]2 [Dd]>[Cc] | %68
!<(! [Cc]>!<)![B,B] [B,B]>[B,B] [B,B]2 [CGc]2 | %69
[K:treble]!f! [DF]2)!<(! ([Ff]>!<)![Gg] [Aa]>[Bb] [cc']>[dd']) | %70
!>(! (((([fac'f']4!>)! [eac'e']3)))) z/ ([Gceg]/ | %71
 [Ff]2)!<(! ([Ff]>!<)![=G=g] [=A=a]>[Bb] [cc']>[dd']) |!>(! (!arpeggio![B=e=gd']4!>)! [cfc']2) z2 | %73
[K:bass]!f! ([_G,_A,C_A]2 [G,A,CA]2 [F,A]2) z2 |!>(! ([E,=A,A]2!>)! [E,=A,A]2 D,4) | %75
 (B,2 B,>B, B,2 D>C | C>B, B,>B,!<(! B,2!<)! [__A,D]>[CE]) | %77
!f! [DF]2[K:treble]!<(! ([Ff]>!<)![Gg] [Aa]>[Bb] [cc']>[dd']) | %78
!>(! (((([fac'f']4!>)! [eac'e']3)))) z/ ([Gceg]/ | %79
 [Ff]2)!<(! ([Ff]>!<)![=G=g] [=A=a]>[Bb] [cc']>[dd']) |!>(! (!arpeggio![B=e=gd']4!>)! [cfc']2) z2 | %81
[K:bass]!f! ([_G,_A,C_A]2 [G,A,CA]2 [F,A]2) z2 |!>(! ([E,=A,A]2!>)! [E,=A,A]2 D,4) | %83
!p! (B,2 B,>B, B,2 D>C |{/D} C>B, B,>B, !fermata!B,4) |] %85
V:4
 F,2 G,2 F,2 G,2 | F,2 G,2 F,2 G,2 | F,2 G,2 F,2 G,2 | F,2 G,2 F,2 G,2 | F,2 [G,B,]2 F,2 G,2 | %5
 F,2 G,2 F,2 G,2 | [B,D]2 [B,D]2 [B,D]2 B,2 | [B,D]2 [B,D]2 [B,D]2 B,2 | F,2 G,2 F,2 G,2 | %9
 F,2 G,2 F,2 G,2 | d2{d} d2 d2 d2 | d2{d} d2 d2 d2 | F2 G2 F2 G2 | F2 G2 F2 A2 | d2 d2 d2 a2 | x8 | %16
 (([ce]2 [Bd]2)) [df]2 f2 | x8 |[K:bass] F2 E2 D2 z2 | D2 C2 B,4 | F,2 G,2 F,2 G,2 | %21
 F,2 G,2 F,2 _F,>G, | F,2[K:treble] d2 d2 a2 | x8 | (([ce]2 [Bd]2)) [df]2 f2 | x8 | %26
[K:bass] F2 E2 D2 z2 | D2 C2 B,4 | F,2 G,2 F,2 G,2 | F,2 G,2 F,4 |: x8 | x8 | x8 | x8 | x8 | x8 | %36
 x8 | x8 :: x8 | x8 | x8 | x8 | x8 | x8 | x8 | x8 | x8 | x8 | x8 | x8 | x8 | x8 | x8 |1 x8 :|2 %54
 x8 || F,2 G,2 F,2 G,2 | F,2 G,2 F,2 G,2 | F,2 G,2 F,2 G,2 | F,2 G,2 F,2 G,2 | %59
 F,2 [G,B,]2 F,2 G,2 | F,2 G,2 F,2 G,2 | [B,D]2 [B,D]2 [B,D]2 B,2 | [B,D]2 [B,D]2 [B,D]2 B,2 | %63
 F,2 G,2 F,2 G,2 | F,2 G,2 F,2 G,2 |[K:treble] d2{d} d2 d2 d2 | d2{d} d2 d2 d2 | F2 G2 F2 G2 | %68
 F2 G2 F2 A2 |[K:treble] d2 d2 d2 a2 | x8 | (([ce]2 [Bd]2)) [df]2 f2 | x8 |[K:bass] F2 E2 D2 z2 | %74
 D2 C2 B,4 | F,2 G,2 F,2 G,2 | F,2 G,2 F,2 _F,>G, | F,2[K:treble] d2 d2 a2 | x8 | %79
 (([ce]2 [Bd]2)) [df]2 f2 | x8 |[K:bass] F2 E2 D2 z2 | D2 C2 B,4 | F,2 G,2 F,2 G,2 | F,2 G,2 F,4 |] %85
V:5
!pp! [B,,,F,,B,,]2 [D,,G,,D,]2 [B,,,F,,B,,]2 [D,,G,,D,]2 | %1
 [B,,,F,,B,,]2 [D,,G,,D,]2 [B,,,F,,B,,]2 [D,,G,,D,]2 | %2
!p! [B,,,F,,B,,]2 [D,,G,,D,]2 [B,,,F,,B,,]2 [D,,G,,D,]2 | %3
 [B,,,F,,B,,]2 [D,,G,,D,]2 [B,,,F,,B,,]2 [D,,G,,D,]2 | %4
"^poco cresc." [B,,,F,,B,,]2 [D,,G,,D,]2 [B,,,F,,B,,]2 [D,,G,,D,]2 | %5
 [B,,,F,,B,,]2 [D,,G,,D,]2 [B,,,F,,B,,]2 [D,,G,,D,]2 | %6
 [B,,,F,,B,,]2 [D,,G,,D,]2 [B,,,F,,B,,]2 [D,,G,,D,]2 | %7
 [B,,,F,,B,,]2 [D,,G,,D,]2 [B,,,F,,B,,]2 [D,,G,,D,]2 | %8
"^cresc." [B,,,F,,B,,]2 [D,,G,,D,]2 [B,,,F,,B,,]2 [D,,G,,D,]2 | %9
 [B,,,F,,B,,]2 [D,,G,,D,]2 [B,,,F,,B,,]2 [D,,G,,D,]2 | %10
 [B,,,F,,B,,]2 [D,,G,,D,]2 [B,,,F,,B,,]2 [D,,G,,D,]2 | %11
 [B,,,F,,B,,]2 [D,,G,,D,]2 [B,,,F,,B,,]2 [D,,G,,D,]2 | %12
"^più cresc." [B,,,F,,B,,]2 [D,,G,,D,]2 [B,,,F,,B,,]2 [D,,G,,D,]2 | %13
 [B,,,F,,B,,]2 [D,,G,,D,]2 ([B,,,F,,B,,]2 [A,,,A,,]2 | D,,2) (D>E F>G E>F) | %15
 [A,,,A,,]2[K:treble] ([EGc]>[DGB] [DGB]>[CGA] [CGA]>[=A,CE]) | %16
[K:bass] [B,,,B,,]2 [F,B,D]2 [D,,D,]2 [F,B,DF]2 | %17
 [F,,,F,,]2 ([F,B,D=G]2 !arpeggio![F,=A,C=A]2) (F,2 | %18
"^sempre"{=G,,A,,B,,} (TA,,4){G,,A,,} D,2) (D,2 | %19
!<(!{=E,,F,,_G,,} (TF,,4)!<)!"^dimin."{E,,F,,} G,,2 F,,D,, | %20
!p! [B,,,F,,B,,]2) [D,,G,,D,]2 [B,,,F,,B,,]2 [D,,G,,D,]2 | %21
 [B,,,F,,B,,]2 [D,,G,,D,]2 ([B,,,F,,B,,]2 [__B,,,__B,,]>[A,,,A,,]) | D,,2 (D>E F>G E>F) | %23
 [A,,,A,,]2[K:treble] ([EGc]>[DGB] [DGB]>[CGA] [CGA]>[=A,CE]) | %24
[K:bass] [B,,,B,,]2 [F,B,D]2 [D,,D,]2 [F,B,DF]2 | %25
 [F,,,F,,]2 ([F,B,D=G]2 !arpeggio![F,=A,C=A]2) (F,2 | %26
"^sempre"{=G,,A,,B,,} (TA,,4){G,,A,,} D,2) (D,2 | %27
!<(!{=E,,F,,_G,,} (TF,,4)!<)!"^dimin."{E,,F,,} G,,2 F,,D,, | %28
 [B,,,F,,B,,]2) [D,,G,,D,]2 [B,,,F,,B,,]2 [D,,G,,D,]2 | %29
 [B,,,F,,B,,]2 [D,,G,,D,]2 !fermata![B,,,F,,B,,]2 [A,,,A,,]2 |: D,,A,,D,F, D,,A,,D,F, | %31
 E,,A,,C,G, E,,A,,C,G, | A,,,A,,C,G, A,,,A,,C,G, | D,,A,,D,F, D,,A,,D,F, | %34
 D,,A,,D,F, B,,,B,,=D,A, | E,,G,,B,,E, G,,B,,E,G, | =G,,=E,B,D A,,C,_E,A, | A,,,A,,G,C D,,A,,F,D :: %38
 A,,,A,,E,C A,,,A,,C,E, | B,,,B,,E,D B,,,B,,E,D | B,,,B,,=E,D B,,,=E,,B,,D, | C,,C,F,E C,,C,F,E | %42
 D,,D,F,B, D,,D,F,B, | E,,E,B,E F,,F,B,F | G,,G,B,E G,,G,B,=E | F,,C,=A,C, E,,A,,E,[C,G,] | %46
 D,,A,,D,F, D,,A,,D,F, | E,,A,,C,G, E,,A,,C,G, | A,,,A,,C,G, A,,,A,,C,G, | D,,A,,D,F, D,,A,,D,F, | %50
 D,,A,,D,F, B,,,B,,=D,A, | E,,G,,B,,E, G,,B,,E,G, | =G,,=E,B,D A,,C,_E,A, |1 %53
 A,,,A,,G,C D,,A,,F,D :|2 A,,,A,,G,C [D,F,D]2 z2 || %55
!pp! [B,,,F,,B,,]2 [D,,G,,D,]2 [B,,,F,,B,,]2 [D,,G,,D,]2 | %56
 [B,,,F,,B,,]2 [D,,G,,D,]2 [B,,,F,,B,,]2 [D,,G,,D,]2 | %57
!p! [B,,,F,,B,,]2 [D,,G,,D,]2 [B,,,F,,B,,]2 [D,,G,,D,]2 | %58
 [B,,,F,,B,,]2 [D,,G,,D,]2 [B,,,F,,B,,]2 [D,,G,,D,]2 | %59
"^poco cresc." [B,,,F,,B,,]2 [D,,G,,D,]2 [B,,,F,,B,,]2 [D,,G,,D,]2 | %60
 [B,,,F,,B,,]2 [D,,G,,D,]2 [B,,,F,,B,,]2 [D,,G,,D,]2 | %61
 [B,,,F,,B,,]2 [D,,G,,D,]2 [B,,,F,,B,,]2 [D,,G,,D,]2 | %62
 [B,,,F,,B,,]2 [D,,G,,D,]2 [B,,,F,,B,,]2 [D,,G,,D,]2 | %63
"^cresc." [B,,,F,,B,,]2 [D,,G,,D,]2 [B,,,F,,B,,]2 [D,,G,,D,]2 | %64
 [B,,,F,,B,,]2 [D,,G,,D,]2 [B,,,F,,B,,]2 [D,,G,,D,]2 | %65
 [B,,,F,,B,,]2 [D,,G,,D,]2 [B,,,F,,B,,]2 [D,,G,,D,]2 | %66
 [B,,,F,,B,,]2 [D,,G,,D,]2 [B,,,F,,B,,]2 [D,,G,,D,]2 | %67
"^più cresc." [B,,,F,,B,,]2 [D,,G,,D,]2 [B,,,F,,B,,]2 [D,,G,,D,]2 | %68
 [B,,,F,,B,,]2 [D,,G,,D,]2 ([B,,,F,,B,,]2 [A,,,A,,]2 | D,,2) (D>E F>G E>F) | %70
 [A,,,A,,]2[K:treble] ([EGc]>[DGB] [DGB]>[CGA] [CGA]>[=A,CE]) | %71
[K:bass] [B,,,B,,]2 [F,B,D]2 [D,,D,]2 [F,B,DF]2 | %72
 [F,,,F,,]2 ([F,B,D=G]2 !arpeggio![F,=A,C=A]2) (F,2 | %73
"^sempre"{=G,,A,,B,,} (TA,,4){G,,A,,} D,2) (D,2 | %74
!<(!{=E,,F,,_G,,} (TF,,4)!<)!"^dimin."{E,,F,,} G,,2 F,,D,, | %75
!p! [B,,,F,,B,,]2) [D,,G,,D,]2 [B,,,F,,B,,]2 [D,,G,,D,]2 | %76
 [B,,,F,,B,,]2 [D,,G,,D,]2 ([B,,,F,,B,,]2 [__B,,,__B,,]>[A,,,A,,]) | D,,2 (D>E F>G E>F) | %78
 [A,,,A,,]2[K:treble] ([EGc]>[DGB] [DGB]>[CGA] [CGA]>[=A,CE]) | %79
[K:bass] [B,,,B,,]2 [F,B,D]2 [D,,D,]2 [F,B,DF]2 | %80
 [F,,,F,,]2 ([F,B,D=G]2 !arpeggio![F,=A,C=A]2) (F,2 | %81
"^sempre"{=G,,A,,B,,} (TA,,4){G,,A,,} D,2) (D,2 | %82
!<(!{=E,,F,,_G,,} (TF,,4)!<)!"^dimin."{E,,F,,} G,,2 F,,D,, | %83
 [B,,,F,,B,,]2) [D,,G,,D,]2 [B,,,F,,B,,]2 [D,,G,,D,]2 | %84
 [B,,,F,,B,,]2 [D,,G,,D,]2 !fermata![B,,,F,,B,,]4 |] %85
V:6
 x8 | x8 | x8 | x8 | x8 | x8 | x8 | x8 | x8 | x8 | x8 | x8 | x8 | x8 | %14
 D,,,2 [D,A,]2 [D,A,]2 [A,A]2 | x2[K:treble] x6 |[K:bass] x8 | x8 | x8 | x8 | x8 | x8 | %22
 D,,,2 [D,A,]2 [D,A,]2 [A,A]2 | x2[K:treble] x6 |[K:bass] x8 | x8 | x8 | x8 | x8 | x8 |: x8 | x8 | %32
 x8 | x8 | x8 | x8 | x8 | x8 :: x8 | x8 | x8 | x8 | x8 | x8 | x8 | x8 | x8 | x8 | x8 | x8 | x8 | %51
 x8 | x8 |1 x8 :|2 x8 || x8 | x8 | x8 | x8 | x8 | x8 | x8 | x8 | x8 | x8 | x8 | x8 | x8 | x8 | %69
 D,,,2 [D,A,]2 [D,A,]2 [A,A]2 | x2[K:treble] x6 |[K:bass] x8 | x8 | x8 | x8 | x8 | x8 | %77
 D,,,2 [D,A,]2 [D,A,]2 [A,A]2 | x2[K:treble] x6 |[K:bass] x8 | x8 | x8 | x8 | x8 | x8 |] %85

